X: 1
T: All The Way To Galway
M: 4/4
L: 1/8
R: reel
K: Dmix
defd cAAc|BGGB cAAc|defd cAAc|BGAF D2D2:|
|:ABAG ABcA|GAGF EFGE|ABAG ABcA|BGAF D2D2:|
